public/assets/img/txt.svg

<svg height="107" viewBox="0 0 80 107" width="80" xmlns="http://www.w3.org/2000/svg"><g fill="none" fill-rule="evenodd"><path d="m66.2524531 1h-65.2524531v104.666667h78v-91.9191201z" stroke="#000" stroke-width="2"/><g fill="#000"><path d="m66.6666667 0h13.3333333v13.3333333z" transform="matrix(-1 0 0 -1 146.666666 13.333334)"/><path d="m8.50666667 22.4266667c.61333333-.96 1.2-1.76 1.86666663-2.5866667l.5333334-.0266667c.4266666.2666667 1.28.5333334 1.68.5866667.6933333.1066667.5333333.6133333.2666666 1.28-.56.3733333-2.3733333 1.6-3.75999997 2-.32-.4266667-.50666666-.88-.58666666-1.2533333zm7.76000003-10.7733334 3.12-.5866666c.5333333-1.0133334 1.0666666-1.8666667 1.6533333-2.8266667.8266667-.32 1.52-.69333333 2.2133333-1.25333333l1.1466667-.10666667c-.1333333 1.28-.6133333 2.61333333-1.0133333 3.92l.8533333-.0533333.1333333.4266666.3733334.2666667.0266666 2.64c-.3733333.1866667-.6933333.5066667-.8533333 1.12l-1.68.4533333c-.3466667.9866667-1.5466667 4.0533334-1.3066667 6.08 1.12-.5866666 1.84-1.2 2.64-2.2666666l.2933334.24c-.4266667.6133333-.5866667 1.6266666-.3733334 2.64-.3466666.48-1.2266666 1.3866666-1.68 1.36-.7733333-.0266667-3.28-2.1866667-3.6266666-2.6133334-.48-.6666666-.64-4.3733333-.4266667-6.32l-.8533333.6133334-.6133334-.2933334zm12.1866666 8.6933334c-.88.8533333-1.7866666 1.68-2.7466666 2.48l-.0266667-2.08 1.68-2.16c-.7733333-1.1466667-1.3333333-2.9066667-1.4133333-3.4133334.64-1.0133333 1.84-2.2933333 2.2133333-2.5866666.4266667-.32.5866667-.4533334.8533333.0533333l1.5733334 2.8533333c1.2533333-1.3066666 2.3733333-2.6133333 3.4933333-4.1066666l.6666667.1866666c.1066666.64.08 2.2133334-.2666667 2.8266667-.5066667.88-1.3333333 1.6533333-2.7733333 2.9866667.8266666 1.4666666 2.08 3.84 3.6266666 5.28l-.4266666.64-.5066667-.2666667-.08.2133333c.2666667.2933334.56.5333334 1.0933333.8266667l-.0266666.6666667c-3.0133334.1066666-6.08-2.8533334-6.9333334-4.4zm7.7333334-8.6933334 3.12-.5866666c.5333333-1.0133334 1.0666666-1.8666667 1.6533333-2.8266667.8266667-.32 1.52-.69333333 2.2133333-1.25333333l1.1466667-.10666667c-.1333333 1.28-.6133333 2.61333333-1.0133333 3.92l.8533333-.0533333.1333333.4266666.3733334.2666667.0266666 2.64c-.3733333.1866667-.6933333.5066667-.8533333 1.12l-1.68.4533333c-.3466667.9866667-1.5466667 4.0533334-1.3066667 6.08 1.12-.5866666 1.84-1.2 2.64-2.2666666l.2933334.24c-.4266667.6133333-.5866667 1.6266666-.3733334 2.64-.3466666.48-1.2266666 1.3866666-1.68 1.36-.7733333-.0266667-3.28-2.1866667-3.6266666-2.6133334-.48-.6666666-.64-4.3733333-.4266667-6.32l-.8533333.6133334-.6133334-.2933334z"/><path d="m9 43h61v2h-61z"/><path d="m9 55h61v2h-61z"/><path d="m9 67h61v2h-61z"/></g></g></svg>

<?xml version="1.0" encoding="UTF-8"?>
<svg width="80px" height="107px" viewBox="0 0 80 107" version="1.1" xmlns="http://www.w3.org/2000/svg" xmlns:xlink="http://www.w3.org/1999/xlink">
    <!-- Generator: Sketch 49.2 (51160) - http://www.bohemiancoding.com/sketch -->
    <title>txt</title>
    <desc>Created with Sketch.</desc>
    <defs></defs>
    <g id="Game-UI" stroke="none" stroke-width="1" fill="none" fill-rule="evenodd">
        <g id="txt">
            <path d="M66.2524531,1 L1,1 L1,105.666667 L79,105.666667 L79,13.7475469 L66.2524531,1 Z" id="Combined-Shape" stroke="#000000" stroke-width="2"></path>
            <polygon id="Rectangle-17-Copy" fill="#000000" transform="translate(73.333333, 6.666667) scale(-1, -1) translate(-73.333333, -6.666667) " points="66.6666667 0 80 0 80 13.3333333"></polygon>
            <path d="M8.50666667,22.4266667 C9.12,21.4666667 9.70666667,20.6666667 10.3733333,19.84 L10.9066667,19.8133333 C11.3333333,20.08 12.1866667,20.3466667 12.5866667,20.4 C13.28,20.5066667 13.12,21.0133333 12.8533333,21.68 C12.2933333,22.0533333 10.48,23.28 9.09333333,23.68 C8.77333333,23.2533333 8.58666667,22.8 8.50666667,22.4266667 Z M16.2666667,11.6533333 L19.3866667,11.0666667 C19.92,10.0533333 20.4533333,9.2 21.04,8.24 C21.8666667,7.92 22.56,7.54666667 23.2533333,6.98666667 L24.4,6.88 C24.2666667,8.16 23.7866667,9.49333333 23.3866667,10.8 L24.24,10.7466667 L24.3733333,11.1733333 L24.7466667,11.44 L24.7733333,14.08 C24.4,14.2666667 24.08,14.5866667 23.92,15.2 L22.24,15.6533333 C21.8933333,16.64 20.6933333,19.7066667 20.9333333,21.7333333 C22.0533333,21.1466667 22.7733333,20.5333333 23.5733333,19.4666667 L23.8666667,19.7066667 C23.44,20.32 23.28,21.3333333 23.4933333,22.3466667 C23.1466667,22.8266667 22.2666667,23.7333333 21.8133333,23.7066667 C21.04,23.68 18.5333333,21.52 18.1866667,21.0933333 C17.7066667,20.4266667 17.5466667,16.72 17.76,14.7733333 L16.9066667,15.3866667 L16.2933333,15.0933333 L16.2666667,11.6533333 Z M28.4533333,20.3466667 C27.5733333,21.2 26.6666667,22.0266667 25.7066667,22.8266667 L25.68,20.7466667 L27.36,18.5866667 C26.5866667,17.44 26.0266667,15.68 25.9466667,15.1733333 C26.5866667,14.16 27.7866667,12.88 28.16,12.5866667 C28.5866667,12.2666667 28.7466667,12.1333333 29.0133333,12.64 L30.5866667,15.4933333 C31.84,14.1866667 32.96,12.88 34.08,11.3866667 L34.7466667,11.5733333 C34.8533333,12.2133333 34.8266667,13.7866667 34.48,14.4 C33.9733333,15.28 33.1466667,16.0533333 31.7066667,17.3866667 C32.5333333,18.8533333 33.7866667,21.2266667 35.3333333,22.6666667 L34.9066667,23.3066667 L34.4,23.04 L34.32,23.2533333 C34.5866667,23.5466667 34.88,23.7866667 35.4133333,24.08 L35.3866667,24.7466667 C32.3733333,24.8533333 29.3066667,21.8933333 28.4533333,20.3466667 Z M36.1866667,11.6533333 L39.3066667,11.0666667 C39.84,10.0533333 40.3733333,9.2 40.96,8.24 C41.7866667,7.92 42.48,7.54666667 43.1733333,6.98666667 L44.32,6.88 C44.1866667,8.16 43.7066667,9.49333333 43.3066667,10.8 L44.16,10.7466667 L44.2933333,11.1733333 L44.6666667,11.44 L44.6933333,14.08 C44.32,14.2666667 44,14.5866667 43.84,15.2 L42.16,15.6533333 C41.8133333,16.64 40.6133333,19.7066667 40.8533333,21.7333333 C41.9733333,21.1466667 42.6933333,20.5333333 43.4933333,19.4666667 L43.7866667,19.7066667 C43.36,20.32 43.2,21.3333333 43.4133333,22.3466667 C43.0666667,22.8266667 42.1866667,23.7333333 41.7333333,23.7066667 C40.96,23.68 38.4533333,21.52 38.1066667,21.0933333 C37.6266667,20.4266667 37.4666667,16.72 37.68,14.7733333 L36.8266667,15.3866667 L36.2133333,15.0933333 L36.1866667,11.6533333 Z" id=".txt" fill="#000000"></path>
            <rect id="Rectangle-21" fill="#000000" x="9" y="43" width="61" height="2"></rect>
            <rect id="Rectangle-21" fill="#000000" x="9" y="55" width="61" height="2"></rect>
            <rect id="Rectangle-21" fill="#000000" x="9" y="67" width="61" height="2"></rect>
        </g>
    </g>
</svg>
